fs/tv_20_regular.svg

<svg viewBox="0 0 20 20" fill="none" xmlns="http://www.w3.org/2000/svg" height="1em" width="1em">
  <path d="M2 6C2 4.89543 2.89543 4 4 4H16C17.1046 4 18 4.89543 18 6V13C18 14.1046 17.1046 15 16 15H4C2.89543 15 2 14.1046 2 13V6ZM4 5C3.44772 5 3 5.44772 3 6V13C3 13.5523 3.44772 14 4 14H16C16.5523 14 17 13.5523 17 13V6C17 5.44772 16.5523 5 16 5H4ZM5 16.5C5 16.2239 5.22386 16 5.5 16H14.5C14.7761 16 15 16.2239 15 16.5C15 16.7761 14.7761 17 14.5 17H5.5C5.22386 17 5 16.7761 5 16.5Z" fill="#212121"/>
</svg>

<svg viewBox="0 0 20 20" fill="none" xmlns="http://www.w3.org/2000/svg" height="1em" width="1em">
  <path d="M2 6a2 2 0 0 1 2-2h12a2 2 0 0 1 2 2v7a2 2 0 0 1-2 2H4a2 2 0 0 1-2-2V6Zm2-1a1 1 0 0 0-1 1v7a1 1 0 0 0 1 1h12a1 1 0 0 0 1-1V6a1 1 0 0 0-1-1H4Zm1 11.5a.5.5 0 0 1 .5-.5h9a.5.5 0 0 1 0 1h-9a.5.5 0 0 1-.5-.5Z" fill="#212121"/>
</svg>
